X:1
T:A Child of the King
T:A Child of the King
T:John Bunnell Sumner
T:Harriet Eugenia Peck Buell, 1877
T:Public Domain Courtesy of the Cyber Hymnal™
C:John Bunnell Sumner
Z:Public Domain
Z:Courtesy of the Cyber Hymnal™
%%score ( 1 2 ) ( 3 4 )
L:1/8
Q:1/4=115
M:3/4
K:Eb
V:1 treble 
V:2 treble 
V:3 bass 
V:4 bass 
V:1
 [EG]2 | [EB]3 [E=A] [EB]2 | [EG]4 [EG]2 | [EG]3 [E^F] [EG]2 | [B,E]4 E2 | [DF]3 [DF] [DF]2 | %6
w: 1.~My|Fa- ther is|rich in|hous- es and|lands, He|hold- eth the|
w: 2.~My|Fa- ther’s own|Son, the|Sav- ior of|men, Once|wan- dered on|
w: 3.~I|once was an|out- cast|strang- er on|earth, A|sin- ner by|
w: 4.~A|tent or a|cot- tage,|why should I|care? They’re|build- ing a|
 [DF]2 [EG]2 [FA]2 | [FA]2 [EG]2 [DF]2 | [EG]4 [EG]2 | [GB]3 [^F=A] [GB]2 | [EG]2 [EG]2 [EG]2 | %11
w: wealth of the|world in His|hands! Of|ru- bies and|dia- monds, of|
w: earth as the|poor- est of|them; But|now He is|plead- ing our|
w: cho- ice, an|a- lien by|birth, But|I’ve been a-|dopt- ed, my|
w: pal- ace for|me o- ver|there; Though|ex- iled from|ho- me, yet|
 [EA]3 [EA] [EA]2 | [Ec]4 [Ec]2 | [EB]3 [EB] [EB]2 | [EG]4 E[EF] | [EG]2 [DG]3 [B,F] | [B,E]4 || %17
w: sil- ver and|gold, His|cof- fers are|full, He has|rich- es un-|told.|
w: par- don on|high, That|we may be|His when He|comes by and|by.|
w: name’s writ- ten|down, An|heir to a|man- sion, a|robe and a|crown.|
w: still may I|sing: All|glor- y to|God, I’m a|child of the|King.|
"^Refrain" [B,E]>[EG] | [GB]3 [^F=A] [GB]2 | [EG]4 [EG]2 | [EG]3 [E^F] [EG]2 | [GB]4 [GB]2 | %22
w: |||||
w: |||||
w: |||||
w: |||||
 [Ge]3 [Bd] [Ac]2 | [GB] [EG]3 [Ec][FA] | [EG]2 [DG]3 [B,F] | [B,E]4 |] %26
w: ||||
w: ||||
w: ||||
w: ||||
V:2
 x2 | x6 | x6 | x6 | x4 E2 | x6 | x6 | x6 | x6 | x6 | x6 | x6 | x6 | x6 | x4 E x | x6 | x4 || x2 | %18
 x6 | x6 | x6 | x6 | x6 | x6 | x6 | x4 |] %26
V:3
 [E,B,]2 | [E,G,]3 [E,^F,] [E,G,]2 | [E,B,]4 [E,B,]2 | [E,B,]3 [E,=A,] [E,B,]2 | [E,G,]4 [G,B,]2 | %5
w: ~|~ ~ ~|~ ~|~ ~ ~|~ ~|
 B,3 B, B,2 | [A,B,]2 [G,B,]2 [F,B,]2 | [B,,B,]2 [B,,B,]2 [B,,B,]2 | [E,B,]4 [E,B,]2 | %9
w: ~ ~ ~|~ ~ ~|~ ~ ~|~ ~|
 [E,E]3 [E,E] [E,E]2 | [E,B,]2 [E,B,]2 [E,_D]2 | [A,C]3 [A,C] [A,C]2 | A,4 [A,,A,]2 | %13
w: ~ ~ ~|~ ~ ~|~ ~ ~|~ ~|
 [E,G,]3 [E,G,] [E,G,]2 | [E,B,]4 [C,=A,][C,A,] | [B,,B,]2 [B,,B,]3 [B,,A,] | [E,G,]4 || %17
w: ~ ~ ~|~ ~ ~|~ ~ ~|~|
 [E,G,]>[E,B,] | [E,E]3 [E,E] [E,E]2 | [E,B,]4 [E,B,]2 | [E,B,]3 [E,=A,] [E,B,]2 | [E,E]4 [E,B,]2 | %22
w: I’m a|child of the|King, A|child of the|King: With|
 [E,B,]3 [E,C] [E,D]2 | [E,E] [E,B,]3 [A,C][F,B,] | B,2 [B,,B,]3 [B,,A,] | [E,G,]4 |] %26
w: Je- sus my|Sav- ior, I’m a|child of the|King.|
V:4
 x2 | x6 | x6 | x6 | x6 | B,3 B, B,2 | x6 | x6 | x6 | x6 | x6 | x6 | A,4 x2 | x6 | x6 | x6 | x4 || %17
 x2 | x6 | x6 | x6 | x6 | x6 | x6 | B,2 x4 | x4 |] %26

